icons/gift-24.svg

<svg width="24" height="24" viewBox="0 0 24 24" xmlns="http://www.w3.org/2000/svg">
  <path fill-rule="evenodd" clip-rule="evenodd" d="M3.75 3.75C3.75 4.5942 4.02896 5.37325 4.49973 6H2.75C1.7835 6 1 6.7835 1 7.75V10.25C1 10.9481 1.40876 11.5507 2 11.8316V20.25C2 21.2165 2.7835 22 3.75 22H20.25C21.2165 22 22 21.2165 22 20.25V11.8316C22.5912 11.5507 23 10.9481 23 10.25V7.75C23 6.7835 22.2165 6 21.25 6H19.5003C19.971 5.37325 20.25 4.5942 20.25 3.75C20.25 1.67893 18.5711 0 16.5 0C15.0445 0 13.0642 0.90109 12 3.1101C10.9358 0.90109 8.95547 0 7.5 0C5.42893 0 3.75 1.67893 3.75 3.75ZM11.2201 6C10.9331 2.5071 8.64937 1.5 7.5 1.5C6.25736 1.5 5.25 2.50736 5.25 3.75C5.25 4.99264 6.25736 6 7.5 6H11.2201ZM20.5 12V20.25C20.5 20.3881 20.3881 20.5 20.25 20.5H12.75V12H20.5ZM11.25 20.5V12H3.5V20.25C3.5 20.3881 3.61193 20.5 3.75 20.5H11.25ZM21.25 10.5C21.3881 10.5 21.5 10.3881 21.5 10.25V7.75C21.5 7.61193 21.3881 7.5 21.25 7.5H12.75V10.5H21.25ZM2.75 10.5H11.25V7.5H2.75C2.61193 7.5 2.5 7.61193 2.5 7.75V10.25C2.5 10.3881 2.61193 10.5 2.75 10.5ZM18.75 3.75C18.75 4.99264 17.7426 6 16.5 6H12.7799C13.0669 2.5071 15.3506 1.5 16.5 1.5C17.7426 1.5 18.75 2.50736 18.75 3.75Z"/>
</svg>

<svg xmlns="http://www.w3.org/2000/svg" width="24" height="24" viewBox="0 0 24 24"><path fill-rule="evenodd" d="M3.75 3.75c0 .844.279 1.623.75 2.25H2.75A1.75 1.75 0 001 7.75v2.5c0 .698.409 1.3 1 1.582v8.418c0 .966.784 1.75 1.75 1.75h16.5A1.75 1.75 0 0022 20.25v-8.418c.591-.281 1-.884 1-1.582v-2.5A1.75 1.75 0 0021.25 6H19.5a3.75 3.75 0 00-3-6c-1.456 0-3.436.901-4.5 3.11C10.936.901 8.955 0 7.5 0a3.75 3.75 0 00-3.75 3.75zM11.22 6c-.287-3.493-2.57-4.5-3.72-4.5a2.25 2.25 0 000 4.5h3.72zm9.28 6v8.25a.25.25 0 01-.25.25h-7.5V12h7.75zm-9.25 8.5V12H3.5v8.25c0 .138.112.25.25.25h7.5zm10-10a.25.25 0 00.25-.25v-2.5a.25.25 0 00-.25-.25h-8.5v3h8.5zm-18.5 0h8.5v-3h-8.5a.25.25 0 00-.25.25v2.5c0 .138.112.25.25.25zm16-6.75A2.25 2.25 0 0116.5 6h-3.72c.287-3.493 2.57-4.5 3.72-4.5a2.25 2.25 0 012.25 2.25z"/></svg>
